app/assets/images/payment_icons/easywallet.svg

<svg xmlns="http://www.w3.org/2000/svg" width="38" height="24" aria-labelledby="pi-easywallet"><title id="pi-easywallet">Easywallet</title><path opacity=".07" d="M35 0H3C1.3 0 0 1.3 0 3v18c0 1.7 1.4 3 3 3h32c1.7 0 3-1.3 3-3V3c0-1.7-1.4-3-3-3z"/><path fill="#fff" d="M35 1c1.1 0 2 .9 2 2v18c0 1.1-.9 2-2 2H3c-1.1 0-2-.9-2-2V3c0-1.1.9-2 2-2h32"/><path fill="#1EA137" d="M28.111 8.339c-.495-.912-1.144-1.704-1.878-2.43-.07-.072-.144-.137-.212-.211-.226-.243-.228-.564-.011-.782.22-.22.546-.241.782-.001.435.438.872.881 1.26 1.36 1.078 1.332 1.826 2.838 2.28 4.49.071.261.089.511-.133.705-.22.192-.462.146-.715.038-1.018-.431-2-.37-2.935.243-.305.196-.639.147-.819-.119-.177-.263-.096-.601.203-.806.663-.454 1.404-.669 2.203-.705.04-.002.08-.008.177-.015-1.206-1.176-2.568-1.964-4.168-2.365-.019.017-.015.019-.01 0-.021-.023-.045-.027-.088-.041a116.61 116.61 0 0 0-1.509-.255c-3.513-.19-6.293 1.15-8.347 4.002-.304.421-.61.545-.912.333-.299-.21-.305-.533-.009-.958 1.833-2.615 4.346-4.09 7.51-4.47.189-.023.379-.029.61-.046l1.669.068c1.819.243 3.471.899 4.969 2.016.044.027.062.033.085.052.013-.008.025-.03.03-.061a.082.082 0 0 0-.032-.042Z"/><path fill="#F7B249" d="M12.482 5.961c-.495.992-.793 2.048-.984 3.135-.462 2.626-.268 5.194.709 7.69.051.129.113.257.193.379a9.29 9.29 0 0 1 .362-2.492c.105-.358.23-.709.366-1.054.13-.331.43-.465.722-.35.308.119.438.431.304.763-.454 1.101-.69 2.245-.618 3.432.038.641.169 1.276.281 1.908.047.265.092.509-.128.708-.219.2-.459.157-.714.057-2.148-.834-3.766-2.265-4.872-4.283-.085-.155-.163-.333-.174-.507-.017-.254.187-.461.44-.514.24-.055.463.069.614.306.333.52.629 1.074 1.025 1.539.427.501.955.917 1.465 1.384.041.016.053.014.065.013-.005-.019-.012-.037-.019-.055-.295-.829-.648-1.641-.878-2.488a13.868 13.868 0 0 1-.397-5.429c.109-.862.301-1.715.448-2.592-.008-.02-.011-.02.007-.023.023-.025.029-.046.042-.088.245-.65.484-1.283.718-1.918.021-.055.027-.119.038-.178.168-.205.322-.429.667-.411.441.155.568.424.419.815-.024.063-.03.132-.044.198 0 0 .005-.002-.014-.008-.025.016-.034.039-.043.063Z"/><path fill="#E50280" d="M26.48 19.732c-.313.207-.641.368-.897.604-.789.731-1.811.859-2.774 1.143-.64.186-1.155-.036-1.599-.5-.715-.754-1.249-1.628-1.735-2.535-.187-.355-.374-.708-.551-1.066a2.9 2.9 0 0 1-.23-.582c-.031-.138.007-.293.014-.441.163.022.369-.011.482.075.246.191.47.427.66.677.215.28.356.615.571.895.259.335.534.672.854.945.459.393 1 .266 1.534.141.986-.235 1.886-.698 2.833-1.034.467-.167.964-.245 1.452-.346.13-.028.274-.014.408.008.36.058.529.341.358.66-.136.251-.33.482-.537.678-.255.245-.55.448-.843.678Z"/><path fill="#047EC5" d="M12.56 5.907a.434.434 0 0 1 .023-.199c.149-.391.022-.66-.399-.816.977-.592 2.053-.937 3.183-1.128.001-.024.002-.048.005-.073-.525-.06-1.049-.149-1.576-.173-.479-.022-.962.027-1.443.044-.362.012-.601-.178-.626-.5-.026-.31.202-.563.542-.599 2.241-.235 4.34.206 6.292 1.332.04.023.08.047.117.072.421.278.41.765-.037 1.003a9.41 9.41 0 0 0-2.835 2.317c-.235.281-.565.316-.818.1a.53.53 0 0 1-.035-.799c.502-.527 1.029-1.027 1.547-1.537.05-.049.109-.092.169-.144-.752-.173-2.618.332-4.109 1.1Z"/><path fill="#E50280" d="M18.019 11.339c.288-.888.995-1.425 1.845-1.421a1.91 1.91 0 0 1 1.802 1.341 1.904 1.904 0 0 1-.649 2.056 1.906 1.906 0 0 1-2.149.122 1.882 1.882 0 0 1-.872-1.969c.006-.036.011-.072.023-.129Z"/><path fill="#E50380" d="M22.545 7.462c.49.064.986.147 1.505.256a.175.175 0 0 0 .08.042s-.004-.002-.003-.004c.034.088.059.181.102.264 1.492 2.898 1.505 5.805.044 8.714a.985.985 0 0 1-.414.402c-.199.095-.416.014-.565-.162-.162-.193-.167-.401-.067-.637.256-.599.561-1.19.725-1.817.67-2.562.182-4.915-1.407-7.058Z"/><path fill="#047EC5" d="M11.479 5.309a.37.37 0 0 1-.02.173 93.103 93.103 0 0 1-.732 1.926.53.53 0 0 0-.046.083s.003 0 .004-.002c-.591.554-1.006 1.233-1.36 1.95-.619 1.253-.886 2.585-.837 3.984.014.444-.252.684-.654.629-.28-.04-.47-.268-.453-.645.03-.688.034-1.388.161-2.061.485-2.535 1.81-4.543 3.937-6.037Z"/><path fill="#E40480" d="M23.049 6.358a42.287 42.287 0 0 1-1.633-.057c-.547-.364-1.073-.734-1.616-1.077-.235-.15-.4-.31-.372-.606.038-.404.463-.603.87-.397a9.193 9.193 0 0 1 2.561 1.919c.062.065.12.135.19.218Z"/><path fill="#047EC5" d="M12.499 5.957c-.008-.02.001-.043.027-.061.008.023-.001.041-.027.061Z"/><path fill="#FFF" d="M24.135 7.741c-.023.015-.043.01-.066-.013.021-.014.045-.01.066.013ZM28.092 8.349c.03-.002.042.008.042.04-.01.02-.029.039-.029.039-.015-.005-.033-.011-.059-.029.003-.021.014-.031.046-.05ZM28.137 8.4c.001.012-.011.034-.024.042-.008-.014.011-.033.024-.042ZM10.699 7.488c-.01-.015-.001-.035.022-.061.007.015.001.036-.022.061ZM11.51 18.03c.016.008.023.026.028.045-.012.001-.024.003-.047-.006-.004-.015.002-.023.019-.039Z"/></svg>

<svg role="img" viewBox="0 0 38 24" width="38" height="24" aria-labelledby="pi-easywallet" xmlns="http://www.w3.org/2000/svg"><title id="pi-easywallet">Easywallet</title><path opacity=".07" d="M35 0H3C1.3 0 0 1.3 0 3v18c0 1.7 1.4 3 3 3h32c1.7 0 3-1.3 3-3V3c0-1.7-1.4-3-3-3z"/><path fill="#fff" d="M35 1c1.1 0 2 .9 2 2v18c0 1.1-.9 2-2 2H3c-1.1 0-2-.9-2-2V3c0-1.1.9-2 2-2h32"/><path fill="#1EA137" opacity="1.000000" stroke="none" d="M 28.111 8.339 C 27.616 7.427 26.967 6.635 26.233 5.909 C 26.163 5.837 26.089 5.772 26.021 5.698 C 25.795 5.455 25.793 5.134 26.01 4.916 C 26.23 4.696 26.556 4.675 26.792 4.915 C 27.227 5.353 27.664 5.796 28.052 6.275 C 29.13 7.607 29.878 9.113 30.332 10.765 C 30.403 11.026 30.421 11.276 30.199 11.47 C 29.979 11.662 29.737 11.616 29.484 11.508 C 28.466 11.077 27.484 11.138 26.549 11.751 C 26.244 11.947 25.91 11.898 25.73 11.632 C 25.553 11.369 25.634 11.031 25.933 10.826 C 26.596 10.372 27.337 10.157 28.136 10.121 C 28.176 10.119 28.216 10.113 28.313 10.106 C 27.107 8.93 25.745 8.142 24.145 7.741 C 24.126 7.758 24.13 7.76 24.135 7.741 C 24.114 7.718 24.09 7.714 24.047 7.7 C 23.531 7.609 23.035 7.526 22.538 7.445 C 19.025 7.255 16.245 8.595 14.191 11.447 C 13.887 11.868 13.581 11.992 13.279 11.78 C 12.98 11.57 12.974 11.247 13.27 10.822 C 15.103 8.207 17.616 6.732 20.78 6.352 C 20.969 6.329 21.159 6.323 21.39 6.306 C 21.975 6.329 22.517 6.352 23.059 6.374 C 24.878 6.617 26.53 7.273 28.028 8.39 C 28.072 8.417 28.09 8.423 28.113 8.442 C 28.126 8.434 28.138 8.412 28.143 8.381 C 28.134 8.357 28.122 8.347 28.111 8.339 Z"/><path fill="#F7B249" opacity="1.000000" stroke="none" d="M 12.482 5.961 C 11.987 6.953 11.689 8.009 11.498 9.096 C 11.036 11.722 11.23 14.29 12.207 16.786 C 12.258 16.915 12.32 17.043 12.4 17.165 C 12.41 16.313 12.527 15.484 12.762 14.673 C 12.867 14.315 12.992 13.964 13.128 13.619 C 13.258 13.288 13.558 13.154 13.85 13.269 C 14.158 13.388 14.288 13.7 14.154 14.032 C 13.7 15.133 13.464 16.277 13.536 17.464 C 13.574 18.105 13.705 18.74 13.817 19.372 C 13.864 19.637 13.909 19.881 13.689 20.08 C 13.47 20.28 13.23 20.237 12.975 20.137 C 10.827 19.303 9.209 17.872 8.103 15.854 C 8.018 15.699 7.94 15.521 7.929 15.347 C 7.912 15.093 8.116 14.886 8.369 14.833 C 8.609 14.778 8.832 14.902 8.983 15.139 C 9.316 15.659 9.612 16.213 10.008 16.678 C 10.435 17.179 10.963 17.595 11.473 18.062 C 11.514 18.078 11.526 18.076 11.538 18.075 C 11.533 18.056 11.526 18.038 11.519 18.02 C 11.224 17.191 10.871 16.379 10.641 15.532 C 10.156 13.755 10.012 11.937 10.244 10.103 C 10.353 9.241 10.545 8.388 10.692 7.511 C 10.684 7.491 10.681 7.491 10.699 7.488 C 10.722 7.463 10.728 7.442 10.741 7.4 C 10.986 6.75 11.225 6.117 11.459 5.482 C 11.48 5.427 11.486 5.363 11.497 5.304 C 11.665 5.099 11.819 4.875 12.164 4.893 C 12.605 5.048 12.732 5.317 12.583 5.708 C 12.559 5.771 12.553 5.84 12.539 5.906 C 12.539 5.906 12.544 5.904 12.525 5.898 C 12.5 5.914 12.491 5.937 12.482 5.961 Z"/><path fill="#E50280" opacity="1.000000" stroke="none" d="M 26.48 19.732 C 26.167 19.939 25.839 20.1 25.583 20.336 C 24.794 21.067 23.772 21.195 22.809 21.479 C 22.169 21.665 21.654 21.443 21.21 20.979 C 20.495 20.225 19.961 19.351 19.475 18.444 C 19.288 18.089 19.101 17.736 18.924 17.378 C 18.832 17.19 18.743 16.998 18.694 16.796 C 18.663 16.658 18.701 16.503 18.708 16.355 C 18.871 16.377 19.077 16.344 19.19 16.43 C 19.436 16.621 19.66 16.857 19.85 17.107 C 20.065 17.387 20.206 17.722 20.421 18.002 C 20.68 18.337 20.955 18.674 21.275 18.947 C 21.734 19.34 22.275 19.213 22.809 19.088 C 23.795 18.853 24.695 18.39 25.642 18.054 C 26.109 17.887 26.606 17.809 27.094 17.708 C 27.224 17.68 27.368 17.694 27.502 17.716 C 27.862 17.774 28.031 18.057 27.86 18.376 C 27.724 18.627 27.53 18.858 27.323 19.054 C 27.068 19.299 26.773 19.502 26.48 19.732 Z"/><path fill="#047EC5" opacity="1.000000" stroke="none" d="M 12.56 5.907 C 12.553 5.84 12.559 5.771 12.583 5.708 C 12.732 5.317 12.605 5.048 12.184 4.892 C 13.161 4.3 14.237 3.955 15.367 3.764 C 15.368 3.74 15.369 3.716 15.372 3.691 C 14.847 3.631 14.323 3.542 13.796 3.518 C 13.317 3.496 12.834 3.545 12.353 3.562 C 11.991 3.574 11.752 3.384 11.727 3.062 C 11.701 2.752 11.929 2.499 12.269 2.463 C 14.51 2.228 16.609 2.669 18.561 3.795 C 18.601 3.818 18.641 3.842 18.678 3.867 C 19.099 4.145 19.088 4.632 18.641 4.87 C 17.541 5.456 16.601 6.231 15.806 7.187 C 15.571 7.468 15.241 7.503 14.988 7.287 C 14.747 7.083 14.709 6.743 14.953 6.488 C 15.455 5.961 15.982 5.461 16.5 4.951 C 16.55 4.902 16.609 4.859 16.669 4.807 C 15.917 4.634 14.051 5.139 12.56 5.907 Z"/><path fill="#E50280" opacity="1.000000" stroke="none" d="M 18.019 11.339 C 18.307 10.451 19.014 9.914 19.864 9.918 C 20.685 9.921 21.428 10.476 21.666 11.259 C 21.895 12.013 21.636 12.838 21.017 13.315 C 20.394 13.794 19.531 13.845 18.868 13.437 C 18.191 13.023 17.852 12.257 17.996 11.468 C 18.002 11.432 18.007 11.396 18.019 11.339 Z"/><path fill="#E50380" opacity="1.000000" stroke="none" d="M 22.545 7.462 C 23.035 7.526 23.531 7.609 24.05 7.718 C 24.092 7.751 24.112 7.756 24.13 7.76 C 24.13 7.76 24.126 7.758 24.127 7.756 C 24.161 7.844 24.186 7.937 24.229 8.02 C 25.721 10.918 25.734 13.825 24.273 16.734 C 24.189 16.898 24.023 17.055 23.859 17.136 C 23.66 17.231 23.443 17.15 23.294 16.974 C 23.132 16.781 23.127 16.573 23.227 16.337 C 23.483 15.738 23.788 15.147 23.952 14.52 C 24.622 11.958 24.134 9.605 22.545 7.462 Z"/><path fill="#047EC5" opacity="1.000000" stroke="none" d="M 11.479 5.309 C 11.486 5.363 11.48 5.427 11.459 5.482 C 11.225 6.117 10.986 6.75 10.727 7.408 C 10.698 7.453 10.689 7.473 10.681 7.491 C 10.681 7.491 10.684 7.491 10.685 7.489 C 10.094 8.043 9.679 8.722 9.325 9.439 C 8.706 10.692 8.439 12.024 8.488 13.423 C 8.502 13.867 8.236 14.107 7.834 14.052 C 7.554 14.012 7.364 13.784 7.381 13.407 C 7.411 12.719 7.415 12.019 7.542 11.346 C 8.027 8.811 9.352 6.803 11.479 5.309 Z"/><path fill="#E40480" opacity="1.000000" stroke="none" d="M 23.049 6.358 C 22.517 6.352 21.975 6.329 21.416 6.301 C 20.869 5.937 20.343 5.567 19.8 5.224 C 19.565 5.074 19.4 4.914 19.428 4.618 C 19.466 4.214 19.891 4.015 20.298 4.221 C 21.263 4.712 22.119 5.35 22.859 6.14 C 22.921 6.205 22.979 6.275 23.049 6.358 Z"/><path fill="#047EC5" opacity="1.000000" stroke="none" d="M 12.499 5.957 C 12.491 5.937 12.5 5.914 12.526 5.896 C 12.534 5.919 12.525 5.937 12.499 5.957 Z"/><path fill="#FFFFFF" opacity="1.000000" stroke="none" d="M 24.135 7.741 C 24.112 7.756 24.092 7.751 24.069 7.728 C 24.09 7.714 24.114 7.718 24.135 7.741 Z"/><path fill="#FFFFFF" opacity="1.000000" stroke="none" d="M 28.092 8.349 C 28.122 8.347 28.134 8.357 28.134 8.389 C 28.124 8.409 28.105 8.428 28.105 8.428 C 28.09 8.423 28.072 8.417 28.046 8.399 C 28.049 8.378 28.06 8.368 28.092 8.349 Z"/><path fill="#FFFFFF" opacity="1.000000" stroke="none" d="M 28.137 8.4 C 28.138 8.412 28.126 8.434 28.113 8.442 C 28.105 8.428 28.124 8.409 28.137 8.4 Z"/><path fill="#FFFFFF" opacity="1.000000" stroke="none" d="M 10.699 7.488 C 10.689 7.473 10.698 7.453 10.721 7.427 C 10.728 7.442 10.722 7.463 10.699 7.488 Z"/><path fill="#FFFFFF" opacity="1.000000" stroke="none" d="M 11.51 18.03 C 11.526 18.038 11.533 18.056 11.538 18.075 C 11.526 18.076 11.514 18.078 11.491 18.069 C 11.487 18.054 11.493 18.046 11.51 18.03 Z"/></svg>
